assets/Badger/Flat/badger_flat.svg

<svg width="32" height="32" viewBox="0 0 32 32" fill="none" xmlns="http://www.w3.org/2000/svg">
<path d="M13.66 29.7101L11.11 25.6901L16 24.6201V29.6901C16 29.8601 15.86 30.0001 15.69 30.0001H14.19C13.97 30.0001 13.77 29.8901 13.66 29.7101Z" fill="#212121"/>
<path d="M21.34 29.7101L23.89 25.6901L19 24.6201V29.6901C19 29.8601 19.14 30.0001 19.31 30.0001H20.81C21.03 30.0001 21.22 29.8901 21.34 29.7101Z" fill="#212121"/>
<path d="M7.79999 16.68H9.27998V17.0801H8.24003C7.58003 17.0801 6.95003 17.3801 6.54003 17.8901C5.95003 18.6201 5.22003 19.4801 4.98003 19.7601C4.93003 19.8201 4.89003 19.8901 4.88003 19.9601C4.84003 20.2101 5.03003 20.4301 5.28003 20.4301H5.47998V21.43L7.79998 25.2621C8.03998 25.6502 8.05998 26.138 7.84998 26.5461L6.33998 29.552C6.23998 29.761 6.38998 29.9999 6.62998 29.9999H8.83998C9.11998 29.9999 9.37998 29.8805 9.55998 29.6715L12.29 26.4565C12.53 26.1778 12.88 26.0185 13.24 26.0185H21.4C21.83 26.0185 22.23 26.2375 22.46 26.5958L24.44 29.7113C24.55 29.8904 24.75 29.9999 24.97 29.9999H27.38C27.72 29.9999 28 29.7212 28 29.3828V27.1931L29 27.3824V21C29 19.0516 27.5763 15.2049 22.4175 15.0079C22.3156 15.0026 22.2131 15 22.11 15H16.88C15.91 15 14.97 15.3882 14.28 16.075C14.05 16.3039 13.8 16.493 13.52 16.6523C13.03 16.931 12.42 16.5727 12.42 16.0153V15.4778H10.12V15.16C10.12 14.52 9.59999 14 8.95999 14C8.31999 14 7.79999 14.52 7.79999 15.16V16.68Z" fill="#636363"/>
<path d="M6.84 17.92C6.27 18.62 5.57 19.45 5.33 19.72C5.28 19.77 5.25 19.84 5.24 19.91C5.2 20.15 5.38 20.36 5.62 20.36H11.89C12.19 20.36 12.43 20.6 12.43 20.9C12.43 21.2 12.19 21.44 11.89 21.44H3.62C2.73 21.44 2 20.72 2 19.82C2 19.53 2.24 19.29 2.54 19.29H2.94C3.5 19.29 4.01 19.01 4.32 18.54L5.67 16.47C6.27 15.55 7.3 15 8.4 15H10.13C10.2 14.44 10.69 14 11.28 14C11.92 14 12.43 14.52 12.44 15.16V15.55C12.44 16.43 11.73 17.14 10.85 17.14H8.47C7.84 17.14 7.24 17.43 6.84 17.92Z" fill="#D3D3D3"/>
<path d="M28 20.8726V27.2082C28.647 27.7043 29.2943 27.9421 29.7363 28.0272C29.8781 28.0545 30 27.9416 30 27.7972V20.125C30 16.175 27.2083 15.0625 25.8125 15H22.1875C25.4018 15.0415 28 17.6536 28 20.8726Z" fill="#D3D3D3"/>
<path d="M9 18.5C9 18.7761 8.77614 19 8.5 19C8.22386 19 8 18.7761 8 18.5C8 18.2239 8.22386 18 8.5 18C8.77614 18 9 18.2239 9 18.5Z" fill="#1C1C1C"/>
<path d="M3.2 19.83C3.2 20.1614 2.93137 20.43 2.6 20.43C2.26863 20.43 2 20.1614 2 19.83C2 19.4986 2.26863 19.23 2.6 19.23C2.93137 19.23 3.2 19.4986 3.2 19.83Z" fill="#1C1C1C"/>
</svg>

<svg xmlns="http://www.w3.org/2000/svg" width="32" height="32" fill="none"><path fill="#212121" d="m13.66 29.71-2.55-4.02L16 24.62v5.07c0 .17-.14.31-.31.31h-1.5c-.22 0-.42-.11-.53-.29ZM21.34 29.71l2.55-4.02L19 24.62v5.07c0 .17.14.31.31.31h1.5c.22 0 .41-.11.53-.29Z"/><path fill="#636363" d="M7.8 16.68h1.48v.4H8.24c-.66 0-1.29.3-1.7.81-.59.73-1.32 1.59-1.56 1.87-.05.06-.09.13-.1.2-.04.25.15.47.4.47h.2v1l2.32 3.832c.24.388.26.876.05 1.284l-1.51 3.006c-.1.209.05.448.29.448h2.21c.28 0 .54-.12.72-.328l2.73-3.216c.24-.278.59-.438.95-.438h8.16c.43 0 .83.22 1.06.578l1.98 3.115c.11.18.31.289.53.289h2.41c.34 0 .62-.279.62-.617v-2.19l1 .19V21c0-1.948-1.424-5.795-6.582-5.992A5.92 5.92 0 0 0 22.11 15h-5.23c-.97 0-1.91.388-2.6 1.075a3.56 3.56 0 0 1-.76.577.737.737 0 0 1-1.1-.637v-.537h-2.3v-.318a1.16 1.16 0 0 0-2.32 0v1.52Z"/><path fill="#D3D3D3" d="M6.84 17.92c-.57.7-1.27 1.53-1.51 1.8-.05.05-.08.12-.09.19-.04.24.14.45.38.45h6.27c.3 0 .54.24.54.54 0 .3-.24.54-.54.54H3.62c-.89 0-1.62-.72-1.62-1.62 0-.29.24-.53.54-.53h.4c.56 0 1.07-.28 1.38-.75l1.35-2.07C6.27 15.55 7.3 15 8.4 15h1.73c.07-.56.56-1 1.15-1 .64 0 1.15.52 1.16 1.16v.39c0 .88-.71 1.59-1.59 1.59H8.47c-.63 0-1.23.29-1.63.78ZM28 20.873v6.335c.647.496 1.294.734 1.736.82.142.027.264-.086.264-.23v-7.673c0-3.95-2.792-5.063-4.188-5.125h-3.625c3.215.041 5.813 2.654 5.813 5.873Z"/><path fill="#1C1C1C" d="M9 18.5a.5.5 0 1 1-1 0 .5.5 0 0 1 1 0ZM3.2 19.83a.6.6 0 1 1-1.2 0 .6.6 0 0 1 1.2 0Z"/></svg>
